X:12
T:Peuple dans la nuit - F237
C:C. Tassin
M:2/4
L:1/8
K:F
"Fa"A3/B/ A"Do"G|"Rem"F3/G/ F"Lam"E|"Sib"DCD"Do"E|"Fa"F2"Do"C2|\
"Fa"A3/B/ A"Do"G|"Rem"F3/G/ F"Lam"E|"Sib"DCD"Do"E|"Fa"F4||
"Fa"cccA|"Mib"BB B c/d/|"Fa"cccA|"Dom"G4|"Fa"cccA|"Mib"BB B c/d/|\
"Dom"cABG|"Fa"F4||
